X: 109
T: La stangetta
%%abc-version 2.0
%%abcx-abcm2ps-target-version 5.9.1 (29 Sep 2008)
%%abc-creator hum2abc beta
%%abcx-conversion-date 2022/03/06 13:05:57
%%abc-copyright Copyright 2018, Kolb, Paul
%%abc-edited-by Zybina, Karina
%%humdrum-veritas 3025882071
%%humdrum-veritas-data 513121619
%%linebreak <none>
%%barnumbers 0
L: 1/8
M: 4/4
N: Derived from Gas0506.2-La_stangetta_Spinacino.krn
%%staves {1 2}
V: 1 clef=treble
V: 2 clef=bass
K: F
[V:1] z8 | 
[V:2] G,2A,/G,/F,/G,/ A,G, A,/G,/F,/G,/ | 
[V:1] z8 | 
[V:2] A,4A,4 | 
[V:1] G2>C2 DEFG | 
[V:2] B,A,G,6 | 
[V:1] A4ABcA | 
[V:2] F,E,D,C,F,4 | 
[V:1] z BAG z BAG | 
[V:2] G,4x4 & x4G,2F,E, | 
[V:1] F4F4 | 
[V:2] A,4A,4 & D,4D,4 | 
[V:1] G2G4E2 | 
[V:2] B,2B,4G,2 & B,,2G,,A,, B,,A,, C,A,, | 
[V:1] D2d2dcBA | 
[V:2] F,4F,4 & B,,2B,,C,F,4 | 
[V:1] B2B6 | 
[V:2] G,2G,4F,2- & B,,2G,,2G,,A,,B,,C, | 
[V:1] F4z4- | 
[V:2] F,2z2A,2D2 & D,E,F,G,D,2D,2- | 
[V:1] F4G4 & x8 | 
[V:2] DCB,A,B,2B,2- & D,4_E,2G,2- | 
[V:1] G4A4 & x8 | 
[V:2] B,2A,G,F,2F,2 & G,2F,E,D,4 | 
[V:1] A4dcBA & F4D4 | 
[V:2] F,8 & F,E,D,C,G,4 | 
[V:1] G2A4G2- | 
[V:2] E2C2D2B,2 & E,2A,2F,2G,2 | 
[V:1] G2^F2G4 | 
[V:2] A,4G,4 & D,4z2G,,2 | 
[V:1] z8 | 
[V:2] z2G,2G,A,B,2 & G,,2G,,A,,B,,2G,,2 | 
[V:1] z8 | 
[V:2] G,2B,2B,CD2 & B,,2B,,C,D,2B,,2 | 
[V:1] z8 | 
[V:2] DCB,A,G,2A,2- & G,,4B,,2C,2 | 
[V:1] z8 | 
[V:2] A,2G,4^F,2 & D,2G,,2A,,4 | 
[V:1] z2G2GAB2 | 
[V:2] G,2G,A,B,2G,2 & G,,2G,2_E,2G,2- | 
[V:1] G2B2Bcd2 | 
[V:2] B,2B,CD2B,2 & G,4D,4 | 
[V:1] dcBAG4 | 
[V:2] B,4B,4- & G,4B,,C,D,_E, | 
[V:1] F2G4^F2 | 
[V:2] B,2G,2A,4 & D,2_E,2D,4 | 
[V:1] G4d2d2- | 
[V:2] G,4z4 & _E,4z2D,2 | 
[V:1] d2cBd2c2- | 
[V:2] x8 & D,2<C,2B,,2_E,2 | 
[V:1] c6A2 | 
[V:2] x8 & _E,D,C,B,,C,4 | 
[V:1] B4z4 | 
[V:2] z4D2D2- & B,,4G,,2D,2 | 
[V:1] z8 | 
[V:2] D4D2C2- & G,F,D,E,F,2_E,2 | 
[V:1] z8 | 
[V:2] C2B,4A,2 & _E,D,C,B,,C,4 | 
[V:1] B2d2>d2 cB | 
[V:2] B,4B,4 & B,,2G,,6 | 
[V:1] AGFED2A2 | 
[V:2] C4D2CB, & F,4B,,2A,,2- | 
[V:1] AG FE/D/E4 | 
[V:2] A,6^C2 & A,,4A,,4 | 
[V:1] F2B2BAGF | 
[V:2] D8 & D,2G,2G,F,E,D, | 
[V:1] E2A2AGFE | 
[V:2] C4A,4 & C,2F,2F,E,D,C, | 
[V:1] D2G6 | 
[V:2] B,4G,4 & B,,2G,,2G,,A,,B,,G,, | 
[V:1] F2G4^F2 | 
[V:2] A,4A,4 & D,2_E,2D,4 | 
[V:1] G2GA BcB2 | 
[V:2] G,4G,4 & _E,6B,,A,, | 
[V:1] BAB6 | 
[V:2] G,4G,4 & B,,2G,,2G,,A,,B,,G,, | 
[V:1] F2FG ABA2 | 
[V:2] A,4A,4 & D,2D,E, F,E,F,2 | 
[V:1] AGA2AGFE | 
[V:2] A,4A,4 & D,2F,2F,4 | 
[V:1] D2DEF2G2 | 
[V:2] B,4B,4 & B,,4D,2_E,2 | 
[V:1] F2G2GFED | 
[V:2] B,4B,4 & D,2_E,6 | 
[V:1] E2EFG2A2 | 
[V:2] C4C4 & C,2C,D,E,2F,2 | 
[V:1] G2A2AGFE | 
[V:2] C4C4 & E,2F,6 | 
[V:1] F2FGA2B2 | 
[V:2] D4D4 & D,2D,E,F,2G,2 | 
[V:1] A2B2BABc | 
[V:2] D4D4 & F,2B,,6 | 
[V:1] d2D2DEFE | 
[V:2] G,4G,4 & G,,2B,,2B,,2D,C, | 
[V:1] C2E2EFGF | 
[V:2] A,4A,4 & A,,2C,2C,D,_E,D, | 
[V:1] D2F2FGAG | 
[V:2] B,4B,4 & B,,2D,2D,E,F,E, | 
[V:1] E2G2GABA | 
[V:2] C4C4 & C,2E,2E,F,G,F, | 
[V:1] F2FGA2B2- | 
[V:2] D4D4- & D,2D,E,F,2G,2 | 
[V:1] B2AGF4 | 
[V:2] D4A,4 & G,2F,E,D,4 | 
[V:1] D2G4FE | 
[V:2] B,4C4 & B,,2_E,4D,C, | 
[V:1] D2G4FE | 
[V:2] D4G,2A,2 & B,,2_E,4D,C, | 
[V:1] D2E2D2d2- | 
[V:2] B,2C2D2G,2 & B,,2A,,2B,,2G,,2 | 
[V:1] d2cBA2B2 | 
[V:2] G,2<A,2D4 & G,4F,2G,2 | 
[V:1] A2B2BAG2- | 
[V:2] C2D4CB, & A,2D,6 | 
[V:1] G2^F2G4- | 
[V:2] A,4G,4- & D,4z2_E,2 | 
[V:1] G8- | 
[V:2] G,8- & _E,D,C,B,, C,B,,C,B,, | 
[V:1] !fermata!G8 |]  
[V:2] !fermata!G,8 & C,2B,,A,,!fermata!G,,4 |]  


